X:1
T:187 - Teus Pecados
T:Letra: Fanny Jane Crosby (1820-1915)
T:Trad.: William Edwin Entzminger (1859-1930)
T:Música: William Howard Doane (1832-1915)
L:1/16
Q:1/4=110
M:3/4
K:Ab
V:1
E3E| "Ab"E8(3(C2D2)E2|F4E4E3A| "Eb"G3AG4 "Eb7"F4| "Ab"E8E3E| "Ab"E8(3C2D2E2|F4E4E3A| "Eb7"G3AG4B4| "Ab"A8(3E2F2E2| "Eb7"B8-(3B2c2B2| "Ab"A4A4A2B2| "C"c8 "C7"C4| "Fm"HF8 "Eb7"E3E| "Ab"E8 (3C2D2E2| F4E4c3c| c8(3A2B2c2 | d4c4B2A2| "Db"A6G2 A3F| "Ab"E8E2E2| "Eb"E6E2 "Eb7"E3E| "Ab"E8|]
w: 1.~Pe-ca-dor, teus_ pe-ca-dos Bran-cos, bran-cos se fa-rão; Pe-ca-dor, teus_ pe-ca-dos Bran-cos, bran-cos se fa-rão; In-da que se_jam ver-me-lhos, Co-mo lã se-rão; In-da que seus_ pe-ca-dos Se-jam co-moa es-car-la-ta, Bran-cos, bran-cos se fa-rão, Co-mo lã se tor-na-rão!
w: 2.~Pe-ca-dor, Deus_ te cha-ma: Ou-ve já a voz dos céus!  Pe-ca-dor, Deus_ te cha-ma: Ou-ve já a voz dos céus!  E-leé tão bom_ quão a-má-vel, Com-pas-sí-vel é, Com ar-dor te_ con-vi-da, Com a-mor, sim,_ tea-bri-ga! Che-ga, pois, ao Sal-va-dor; Ou-ve já a voz dea-mor!
w: 3.~Des-fa-rá tu_as cul-pas; De-las não se lem-bra mais! Des-fa-rá tu_as cul-pas; De-las não se lem-bra mais!  "Oh, vin-dea mim,_ vós can-sa-dos!" Diz Je-sus, Se-nhor. Mau em-bo-ra_ tu se-jas, Mau em-bo-ra_ tu se-jas Seu des-can-so te da-rá E fe-liz te tor-na-rá!
W: 
W:
W: 1. Pecador, teus pecados
W: Brancos, brancos se farão;    (bis)
W: Inda que sejam vermelhos,
W: Como lã serão;
W: Inda que seus pecados
W: Sejam como a escarlata,
W: Brancos, brancos se farão,
W: Como lã se tornarão!
W: 
W: 2. Pecador, Deus te chama:
W: Ouve já a voz dos céus!        (bis)
W: Ele é tão bom quão amável,
W: Compassível é,
W: Com ardor te convida,
W: Com amor, sim, te abriga!
W: Chega, pois, ao Salvador;
W: Ouve já a voz de amor!
W: 
W:
W:
W: 3. Desfará tuas culpas;
W: Delas não se lembra mais!     (bis)
W: "Oh, vinde a mim, vós cansados!"
W: Diz Jesus, Senhor.
W: Mau embora tu sejas,
W: Mau embora tu sejas
W: Seu descanso te dará
W: E feliz te tornará!
W: 
W: 





